X: 25258
T: Man In A Brown Hat
R: barndance
M: 4/4
K: Dminor
|:F2 FG E2 D2|F2 G2 A4|A2 AB G2 d2|cdcd AcFc|
F2 FG E2 D2|F2 G2 A4|A2 AB AGFG|E4 D4:|
K: Ddor
|:defe d2 A2|c2 B2 A4|DEFG A2 d2|cdcd ABcA|
defe d2 A2|c2 B2 A4|DEFG AGFG|E4 D4:|

